X:9
T:Salterello
L:1/8
M:6/8
N:Anon Italian
Z:Andy Hornby
K:F
d3d2c|d3dcB|A2G G2^F|G3G2d|
d2c d2e|fed c2f|e2d d2^c|c3c3|]
|g3e2g|f2e d2f|e2d c2d|B3G3|
B2G B2c|d2d dcB|A2G G2^F|G3G3|]






